X:372
T:One That Was Lost, The
R:jig
C:Paddy O'Brien (Nenagh) (1922-1991)
Z:id:hn-jig-372
M:6/8
L:1/8
K:Edor
edB BAF|E2D EFA|BAF D2F|AFA def|
edB BAF|E2D EFA|dfb afd|1 efe e2f:|2 efe e2d||
|:Bee efa|baf edB|~d3 Bdd|1 AFA ded|
Bee efa|baf edB|dfb afd|efe e2d:|2 AFA def|
gfe fed|BeB dBA|dfb afd|efe e2f||

